X:1
T:Ox-Driving Song
M:2/4
L:1/8
K:F
 FF F F/2G/2| FD D3/2 D/2| GG G/2 G3/2| AG G3/2 G/2| Ac d2-| d c/2c/2 d G/2G/2|\
 A3 F| GG G| A/2G/2| FD D D/2D/2| F F/2F/2 F F/2G/2| F D/2 D3/2 D/2D/2|\
 G G/2G/2 G G/2G/2| A G/2 G3/2 G/2G/2| Ac d2-| d c/2c/2 dG| A3 F/2F/2|\
 G G/2G/2 G A/2G/2| FD D2-| D4|
